!!!!SEGMENT: pl-kk--kk-i-636--003-005_anonim--in-sabbato-sancto-lamentatio-3tia.krn
!!!cenid: 18xx:4551
!!!COM: Anonim
!!!COM-rismID: pe30004985
!!!CDT:
!!!CNT:
!!!OPR: In Sabbato Sancto
!!!OTL: Lamentatio 3tia
!!!OMV: 005
!!!PDT:
!!!AGN: Sacred
!!!YEC: Copyright 2022 Narodowy Instytut Fryderyka Chopina (https://polishscores.org)
!!!YEM: License CC-BY-4.0 (https://creativecommons.org/licenses/by/4.0)
!!!SMS-siglum: PL-Kk
!!!SMS-shelfmark: Kk.I.636
!!!SMS-variant:
!!!SMS-altvar:
!!!SMS-shelfwork: 003-005 M
!!!NIFC-rismSourceID: 1001216440
!!!NIFC-rismChildID: 1001216931
!!!NIFC-islandoraID: pl-kk:40786
!!!URL-pdf-islandora: https://repozytorium.nifc.pl/islandora/object/pl-kk%3A40786/datastream/PDF/view
!!!URL-scan: https://polish.musicsources.pl/pl/lokalizacje/galeria/rekopisy/7271/1 @EN{Scan on Polish Music Sources Website} @PL{Skany w portalu Dziedzictwo Muzyki Polskiej w otwartym dostępie}
!!!IIIF:
!!!ONB-nifc: UWAGA: Lamentacje i Responsoria In Sabbato Sancto na skanach: S – 15-20, A – 37-42, T – 60-66, B - 86-92. Każda Lamentacja i Responsorium to oddzielne pliki.
!!!AIN: 1 alto 1 bass 1 soprn 1 tenor
!!!key:
**kern	**text	**kern	**text	**kern	**text	**kern	**text
*part4	*part4	*part3	*part3	*part2	*part2	*part1	*part1
*staff4	*staff4	*staff3	*staff3	*staff2	*staff2	*staff1	*staff1
*I"Basso.	*	*I"Tenore.	*	*I"Alto.	*	*I"Soprano.	*
*I'B.	*	*I'T.	*	*I'A.	*	*I'S.	*
*Ibass	*	*Itenor	*	*Ialto	*	*Isoprn	*
*ICvox	*	*ICvox	*	*ICvox	*	*ICvox	*
*clefF4	*	*clefC4	*	*clefC3	*	*clefC1	*
*k[b-e-a-d-]	*	*k[b-e-a-d-]	*	*k[b-e-a-d-]	*	*k[b-e-a-d-]	*
*A-:	*	*A-:	*	*A-:	*	*A-:	*
*M2/4	*	*M2/4	*	*M2/4	*	*M2/4	*
=1	=1	=1	=1	=1	=1	=1	=1
!	!	!	!	!LO:TX:a:t=Adagio.	!	!	!
4A-\	In-	4c\	In-	4a-\	In-	4a-\	In-
(4E-\	-ci-	[4e-\	.	(4g\	.	(4b-\	.
=2	=2	=2	=2	=2	=2	=2	=2
8AA-/)	.	8e-\]	.	8a-\)	.	8cc\)	.
8A-\	-pit	8e-\	-ci-	8a-\	-ci-	8cc\	-ci-
8A-\	o-	8e-\	-pit	8a-\	-pit	8cc\	-pit
8A-\	-ra-	8e-\	o-	8a-\	o-	8cc\	o-
!LO:LB:g=original	!	!LO:LB:g=original	!	!LO:LB:g=original	!	!LO:LB:g=original	!
=3	=3	=3	=3	=3	=3	=3	=3
8A-\	-ra-	8e-\	-ra-	8a-\	-ra-	8cc\	-ra-
8A-\	-ti-	8e-\	-ti-	8a-\	-ti-	8cc\	-ti-
4A-\	-o	4e-\	-o	4a-\	-o	4cc\	-o
=4	=4	=4	=4	=4	=4	=4	=4
4r	.	4r	.	4r	.	4r	.
8A-\	Je-	8e-\	Je-	8a-\	Je-	8cc\	Je-
8A-\	-re-	8e-\	-re-	8a-\	-re-	8cc\	-re-
=5	=5	=5	=5	=5	=5	=5	=5
4E-\	-mi-	4e-\	-mie	4g\	-mi-	4dd-\	.
8E-\	-e	8d-\	.	8g\	-e	8b-\	-mie
8E-\	Pro-	8d-\	Pro-	8g\	Pro-	8b-\	Pro-
=6	=6	=6	=6	=6	=6	=6	=6
4A-\	-phe-	4c\	-phe-	2e-\	-phe-	4a-\	-phe-
4E-\	.	4B-\	.	.	.	4g\	.
=7	=7	=7	=7	=7	=7	=7	=7
4AA-/	.	4c\	.	2e-\	.	4a-\	.
4E-\	.	4d-\	.	.	.	4b-\	.
!LO:LB:g=original	!	!	!	!LO:LB:g=original	!	!LO:LB:g=original	!
=8	=8	=8	=8	=8	=8	=8	=8
*	*	*2\right	*	*	*	*2\right	*
2E-\	-tae	2d-\	-tae	2e-\	-tae	2b-\	-tae
!	!	!LO:LB:g=original	!	!	!	!	!
=9	=9	=9	=9	=9	=9	=9	=9
2AA-;/	,	2c;\	,	2e-;\	,	2a-;\	,
=10||	=10||	=10||	=10||	=10||	=10||	=10||	=10||
4A-\	re-	4c\	re-	4a-\	Re-	4a-\	re-
(4E-\	.	[4e-\	.	(4g\	.	(4b-\	.
=11	=11	=11	=11	=11	=11	=11	=11
8AA-/)	.	8e-\]	.	8a-\)	.	8cc\)	.
8A-\	-cor-	8e-\	-cor-	8a-\	-cor-	8cc\	-cor-
8A-\	-da-	8e-\	-da-	8a-\	-da-	8cc\	-da-
8A-\	-te	8e-\	-re	8a-\	-re	8cc\	-re
=12	=12	=12	=12	=12	=12	=12	=12
8A-\	Do-	8e-\	Do-	8a-\	Do-	8cc\	Do-
8A-\	-mi-	8e-\	-mi-	8a-\	-mi-	8cc\	-mi-
4A-\	-ne	4e-\	-ne	4a-\	-ne	4cc\	-ne
!LO:LB:g=original	!	!	!	!LO:LB:g=original	!	!LO:LB:g=original	!
=13	=13	=13	=13	=13	=13	=13	=13
4r	.	4r	.	4r	.	4r	.
8A-\	quid	8e-\	quid	8a-\	quid	8cc\	quid
8A-\	ac-	8e-\	ac-	8a-\	ae-	8cc\	ac-
!	!	!LO:LB:g=original	!	!	!	!	!
=14	=14	=14	=14	=14	=14	=14	=14
8.B-\	-ci-	8.e-\	-ci-	8.g\	-ci-	8.dd-\	-ci-
16A-\	-de-	16e-\	-de-	16a-\	-de-	16cc\	-de-
4A-\	-rit	4e-\	-rit	4a-\	-rit	4cc\	-rit
=15	=15	=15	=15	=15	=15	=15	=15
4E-\	no-	4e-\	no-	4g\	no-	4b-\	no-
4E-\	-bis	[4e-\	-bis	(4g\	-bis	(4b-\	-bis
=16	=16	=16	=16	=16	=16	=16	=16
4A-\	,	4e-\]	,	4a-\)	,	4cc\)	,
4r	.	4r	.	4r	.	4r	.
=17	=17	=17	=17	=17	=17	=17	=17
4r	.	4r	.	4r	.	4r	.
8A-\	in-	8e-\	in-	8a-\	in-	8cc\	in-
8A-\	-tu-	8e-\	-tu-	8a-\	-tu-	8cc\	-tu-
!LO:LB:g=original	!	!	!	!LO:LB:g=original	!	!LO:LB:g=original	!
=18	=18	=18	=18	=18	=18	=18	=18
8A-\	-e-	8e-\	-e-	8a-\	-e-	8cc\	-e-
8A-\	-re	8e-\	-re,	8a-\	-re	8cc\	-re
8r	.	8r	.	8r	.	8r	.
8A-\	et	8e-\	et	8a-\	et	8cc\	et
!	!	!LO:LB:g=original	!	!	!	!	!
=19	=19	=19	=19	=19	=19	=19	=19
8A-\	res-	8e-\	res-	8a-\	res-	8cc\	res-
8A-\	-pi-	8e-\	-pi-	8a-\	-pi-	8cc\	-pi-
8A-\	-ce	8e-\	-ce	8a-\	-ce	8cc\	-ce
8A-\	op-	8e-\	op-	8a-\	op-	8cc\	op-
=20	=20	=20	=20	=20	=20	=20	=20
8.E-\	-pro-	8.e-\	-pro-	8.g\	-pro-	8.dd-\	-pro-
16E-\	-bri-	16d-\	-bri-	16g\	-bri-	16b-\	-bri-
4E-\	-um	4d-\	-um	4g\	-um	4b-\	-um,
!	!	!	!	!	!	!LO:PB:g=original	!
=21	=21	=21	=21	=21	=21	=21	=21
4A-\	no-	4c\	no-	2e-\	no-	4a-\	no-
4E-\	.	4B-\	.	.	.	4g\	.
!LO:LB:g=original	!	!	!	!LO:LB:g=original	!	!	!
=22	=22	=22	=22	=22	=22	=22	=22
4AA-/	.	4c\	.	2e-\	.	4a-\	.
4E-\	.	4d-\	.	.	.	4b-\	.
=23	=23	=23	=23	=23	=23	=23	=23
2E-\	-strum	2d-\	-strum	2e-\	-strum_	2b-\	-strum
=24	=24	=24	=24	=24	=24	=24	=24
!LO:TX:b:t=Volti Subitto&colon;	!	!	!	!	!	!	!
2AA-;/	.	2c;\	,	2e-\	,	2a-;\	,
!LO:PB:g=original	!	!LO:LB:g=original	!	!	!	!	!
=25||	=25||	=25||	=25||	=25||	=25||	=25||	=25||
4A-\	He-	4c\	he-	4a-\	he-	4a-\	He-
(4E-\	-re-	[4e-\	-re-	(4g\	-re-	(4b-\	-re-
=26	=26	=26	=26	=26	=26	=26	=26
16AA-/)	.	16e-\]	.	16a-\)	.	16cc\)	.
16A-\	-di-	16e-\	-di-	16a-\	-di-	16cc\	-di-
8A-\	-tas	8e-\	-tas	8a-\	-tas	8cc\	-tas
!	!	!	!	!	!	!LO:LB:g=original	!
8A-\	nos-	8e-\	nos-	8a-\	nos-	8cc\	nos-
8A-\	-tra	8e-\	-tra	8a-\	-tra	8cc\	-tra
!	!	!	!	!LO:LB:g=original	!	!	!
=27	=27	=27	=27	=27	=27	=27	=27
8A-\	ver-	8e-\	ver-	8a-\	ver-	8cc\	ver-
8A-\	-sa	8e-\	-sa	8a-\	-sa	8cc\	-sa
4A-\	est,	4e-\	est,	4a-\	est,	4cc\	est
=28	=28	=28	=28	=28	=28	=28	=28
4r	.	4r	.	4r	.	4r	.
4A-\	ad	4e-\	ad	4a-\	ad	4cc\	ad
!LO:LB:g=original	!	!	!	!	!	!	!
=29	=29	=29	=29	=29	=29	=29	=29
4B-\	a-	4e-\	a-	4g\	a-	4dd-\	a-
4A-\	-li-	4e-\	-li-	4a-\	-li-	4cc\	-li-
!	!	!LO:LB:g=original	!	!	!	!	!
=30	=30	=30	=30	=30	=30	=30	=30
8A-\L	-e-	4e-\	-e-	8a-\L	-e-	8cc\L	-e-
8E-\J	.	.	.	8g\J	.	8b-\J	.
4E-\	-nos	[4e-\	-nos	(4g\	-nos	(4b-\	-nos
!	!	!	!	!	!	!LO:LB:g=original	!
=31	=31	=31	=31	=31	=31	=31	=31
4A-\	,	4e-\]	,	4a-\)	,	4cc\)	.
4r	.	4r	.	4r	.	4r	.
!	!	!	!	!LO:LB:g=original	!	!	!
=32	=32	=32	=32	=32	=32	=32	=32
8A-\	do-	8e-\	do-	8a-\	do-	8cc\	do-
8A-\	-mus	8e-\	-mus	8a-\	-mus	8cc\	-mus
8A-\	nos-	8e-\	nos-	8a-\	nos-	8cc\	nos-
8A-\	-trae	8e-\	-tra	8a-\	-trae	8cc\	-tra
=33	=33	=33	=33	=33	=33	=33	=33
4E-\	ad	4e-\	ad	4g\	ad	4dd-\	ad
4E-\	ex-	4d-\	ex-	4g\	ex-	4b-\	ex-
!LO:LB:g=original	!	!	!	!	!	!	!
=34	=34	=34	=34	=34	=34	=34	=34
4A-\	-tra-	4c\	-tra-	2e-\	-tra-	4a-\	-tra-
4E-\	.	4B-\	.	.	.	(4g\	.
!	!	!LO:LB:g=original	!	!	!	!	!
=35	=35	=35	=35	=35	=35	=35	=35
4AA-/	.	4c\	.	4.e-\	.	(4a-\)	.
8E-\	.	8d-\	.	.	.	8b-\)	.
8E-\	-ne-	8d-\	-ne-	8e-\	-ne-	8b-\	-ne-
!	!	!	!	!	!	!LO:LB:g=original	!
=36	=36	=36	=36	=36	=36	=36	=36
2E-\	-os	2d-\	-os	2e-\	-os_	2b-\	-os
=37	=37	=37	=37	=37	=37	=37	=37
2AA-;/	,	2c;\	,	2e-;\	,	2a-;\	,
!	!	!	!	!LO:PB:g=original	!	!	!
=38||	=38||	=38||	=38||	=38||	=38||	=38||	=38||
4A-\	pu-	4c\	pu-	4a-\	pu-	4a-\	pu-
(4E-\	-pil-	[4e-\	-pil-	(4g\	-pil-	(4b-\	-pil-
=39	=39	=39	=39	=39	=39	=39	=39
8AA-/)	.	8e-\]	.	8a-\)	.	8cc\)	.
8A-\	-li	8e-\	-li	8a-\	-li	8cc\	-li
8A-\	fac-	8e-\	fac-	8a-\	fac-	8cc\	fac-
8A-\	-ti	8e-\	-ti	8a-\	-ti	8cc\	-ti
!LO:LB:g=original	!	!LO:LB:g=original	!	!	!	!	!
=40	=40	=40	=40	=40	=40	=40	=40
8A-\	su-	8e-\	su-	8a-\	su-	8cc\	su-
8A-\	-mus,	8e-\	-mus	8a-\	-mus,	8cc\	-mus
4r	.	4r	.	4r	.	4r	.
!	!	!	!	!	!	!LO:LB:g=original	!
=41	=41	=41	=41	=41	=41	=41	=41
4B-\	ab-	4e-\	ab-	4g\	ab-	4dd-\	ab-
4A-\	-sque	4e-\	-sque	4a-\	-sque	4cc\	-sque
=42	=42	=42	=42	=42	=42	=42	=42
4E-\	pa-	4e-\	Pa-	4g\	pa-	4b-\	pa-
(4E-\	-tre	[4e-\	-tre	4g\	-tre	(4b-\	-tre
!	!	!	!	!LO:LB:g=original	!	!	!
=43	=43	=43	=43	=43	=43	=43	=43
4A-\)	,	4e-\]	,	4a-\	,	4cc\)	,
4r	.	4r	.	4r	.	4r	.
=44	=44	=44	=44	=44	=44	=44	=44
8A-\	ma-	8e-\	ma-	8a-\	ma-	8cc\	ma-
8A-\	-tres	8e-\	-tres	8a-\	-tres	8cc\	-tres
8A-\	nos-	8e-\	no-	8a-\	nos-	8cc\	nos-
8A-\	-trae	8e-\	-strae	8a-\	-trae	8cc\	-trae
!LO:LB:g=original	!	!LO:LB:g=original	!	!	!	!	!
=45	=45	=45	=45	=45	=45	=45	=45
4E-\	qua-	4e-\	qua-	4g\	qua-	4dd-\	qua-
4E-\	-si-	4d-\	-si	4g\	-si	4b-\	-si
!	!	!	!	!	!	!LO:LB:g=original	!
=46	=46	=46	=46	=46	=46	=46	=46
4A-\	-vi-	4c\	vi-	2e-\	vi-	4a-\	vi-
4E-\	.	4B-\	.	.	.	4g\	.
=47	=47	=47	=47	=47	=47	=47	=47
4AA-/	.	4c\	.	4.e-\	.	4a-\	.
8E-\	.	8d-\	.	.	.	8b-\	.
8E-\	-du-	8d-\	-du-	8e-\	-du-	8b-\	-du-
!	!	!	!	!LO:LB:g=original	!	!	!
=48	=48	=48	=48	=48	=48	=48	=48
2E-\	-ae	2d-\	-ae	2e-\	-ae	2b-\	-ae
=49	=49	=49	=49	=49	=49	=49	=49
2AA-;/	,	2c;\	,	2e-;\	,	2a-;\	,
=50||	=50||	=50||	=50||	=50||	=50||	=50||	=50||
4A-\	a-	4c\	a-	4a-\	a-	4a-\	a-
4E-\	-quam	4e-\	-quam	4g\	-quam	4b-\	-quam
!LO:LB:g=original	!	!LO:LB:g=original	!	!	!	!LO:LB:g=original	!
=51	=51	=51	=51	=51	=51	=51	=51
8AA-/	nos-	8e-\	nos-	8a-\	nos-	8cc\	nos-
8A-\	-tram	8e-\	-tram	8a-\	-tram	8cc\	-tram
8r	.	8r	.	8r	.	8r	.
8A-\	pe-	8e-\	pe-	8a-\	pe-	8cc\	pe-
=52	=52	=52	=52	=52	=52	=52	=52
8.B-\	-cu-	8.e-\	-cu-	8.g\	-cu-	8.dd-\	-cu-
16A-\	-ni-	16e-\	-ni-	16a-\	-ni-	16cc\	-ni-
4A-\	-a	4e-\	-a	4a-\	-a	4cc\	-a
!	!	!	!	!LO:LB:g=original	!	!	!
=53	=53	=53	=53	=53	=53	=53	=53
8E-\	bi-	8e-\	bi-	8g\	bi-	8b-\	bi-
8E-\	-bi-	8e-\	-bi-	8g\	-bi-	8b-\	-bi-
4E-\	-mus	[4e-\	-mus	(4g\	-mus	(4b-\	-mus
=54	=54	=54	=54	=54	=54	=54	=54
4A-\	,	4e-\]	,	4a-\)	,	4cc\)	,
!	!	!LO:TX:b:t=V.S.	!	!	!	!	!
4r	.	4r	.	4r	.	4r	.
!LO:LB:g=original	!	!LO:PB:g=original	!	!	!	!LO:LB:g=original	!
=55	=55	=55	=55	=55	=55	=55	=55
8A-\	lin-	8e-\	lin-	8a-\	lin-	8cc\	lin-
8A-\	-gua	8e-\	-gua	8a-\	-gua	8cc\	-gua
8A-\	nos-	8e-\	nos-	8a-\	nos-	8cc\	nos-
8A-\	-tra	8e-\	-tra	8a-\	-tra	8cc\	-tra
=56	=56	=56	=56	=56	=56	=56	=56
8.A-\	pre-	8.e-\	pre-	8a-\	pre-	8.cc\	pre-
.	.	.	.	8a-\	-ti-	.	.
16A-\	-ti-	16e-\	-ti-	.	.	16cc\	-ti-
4A-\	-o	4e-\	-o	4a-\	-o	4cc\	-o,
!	!	!	!	!LO:LB:g=original	!	!	!
=57	=57	=57	=57	=57	=57	=57	=57
4E-\	.	4e-\	com-	4g\	com-	4dd-\	com-
4E-\	com-	4d-\	-pa-	4g\	-pa-	4b-\	-pa-
=58	=58	=58	=58	=58	=58	=58	=58
4A-\	-pa-	4c\	-ra-	2e-\	-ra-	4a-\	-ra-
4E-\	-ra-	4B-\	.	.	.	4g\	.
!LO:LB:g=original	!	!	!	!	!	!LO:LB:g=original	!
=59	=59	=59	=59	=59	=59	=59	=59
4AA-/	.	4c\	.	4.e-\	.	4a-\	.
8E-\	.	8d-\	.	.	.	8b-\	.
8E-\	-vi-	8d-\	-vi-	8e-\	-vi-	8b-\	-vi-
!	!	!LO:LB:g=original	!	!	!	!	!
=60	=60	=60	=60	=60	=60	=60	=60
2E-\	-mus	2d-\	-mus	2e-\	-mus	2b-\	-mus_
=61	=61	=61	=61	=61	=61	=61	=61
2AA-;/	,	2c;\	,	2e-;\	,	2a-;\	,
=62||	=62||	=62||	=62||	=62||	=62||	=62||	=62||
4A-\	cer-	4c\	cer-	4a-\	cer-	4a-\	cer-
(4E-\	-vi-	[4e-\	-vi-	(4g\	-vi-	(4b-\	-vi-
=63	=63	=63	=63	=63	=63	=63	=63
8AA-/)	.	8e-\]	.	8a-\)	.	8cc\)	.
8A-\	-ci-	8e-\	-ci-	8a-\	-ci-	8cc\	-ci-
4A-\	-bus	4e-\	-bus	4a-\	-bus	4cc\	-bus
!	!	!	!	!LO:LB:g=original	!	!LO:LB:g=original	!
=64	=64	=64	=64	=64	=64	=64	=64
4B-\	mi-	4e-\	mi-	4g\	mi-	4dd-\	mi-
4A-\	-na-	4e-\	-na-	4a-\	-na-	4cc\	-na-
!LO:LB:g=original	!	!	!	!	!	!	!
=65	=65	=65	=65	=65	=65	=65	=65
8A-\L	-ba-	4e-\	-ba-	8a-\L	-ba-	8cc\L	-ba-
8E-\J	.	.	.	8g\J	.	8b-\J	.
4E-\	-mur	[4e-\	-mur	4g\	-mur	(4b-\	-mur,
=66	=66	=66	=66	=66	=66	=66	=66
4A-\	,	4e-\]	,	4a-\	,	4cc\)	.
4r	.	4r	.	4r	.	4r	.
!	!	!LO:LB:g=original	!	!	!	!	!
=67	=67	=67	=67	=67	=67	=67	=67
8A-\	las-	8e-\	las-	8a-\	las-	8cc\	las-
8A-\	-sis	8e-\	-sis	8a-\	-sis	8cc\	-sis
8A-\	non	8e-\	non	8a-\	non	8cc\	non
8A-\	da-	8e-\	da-	8a-\	da-	8cc\	da-
=68	=68	=68	=68	=68	=68	=68	=68
4E-\	-ba-	4e-\	-ba-	4g\	-ba-	4dd-\	-ba-
4E-\	-tur	4d-\	-tur	4g\	-tur	4b-\	-tur
!	!	!	!	!LO:LB:g=original	!	!LO:LB:g=original	!
=69	=69	=69	=69	=69	=69	=69	=69
4A-\	re-	4c\	re-	[2e-\	re-	4a-\	re-
4E-\	.	4B-\	.	.	.	4g\	.
!LO:LB:g=original	!	!	!	!	!	!	!
=70	=70	=70	=70	=70	=70	=70	=70
4AA-/	.	4c\	.	4.e-\]	.	4a-\	.
8E-\	.	8.d-\	.	.	.	8b-\	.
8E-\	-qui-	.	.	8e-\	-qui-	8b-\	-qui-
.	.	16d-\	-qui-	.	.	.	.
=71	=71	=71	=71	=71	=71	=71	=71
2E-\	-es	2d-\	-es	2e-\	-es	2b-\	-es
=72	=72	=72	=72	=72	=72	=72	=72
2AA-;/	,	2c;\	,	2e-;\	,	2a-;\	,
!	!	!LO:LB:g=original	!	!	!	!	!
=73||	=73||	=73||	=73||	=73||	=73||	=73||	=73||
4A-\	E-	4c\	E-	4a-\	E-	4a-\	E-
(4E-\	-gy-	[4e-\	-gy-	[4a-\	-gy-	(4b-\	-gy-
=74	=74	=74	=74	=74	=74	=74	=74
8AA-/)	.	8e-\]	.	8a-\]	.	8cc\)	.
!LO:N:vis=4	!	!	!	!	!	!	!
8A-\	-pto,	8e-\	-pto	8a-\	-pto	8cc\	-pto
4r	.	4r	.	4r	.	4r	.
!	!	!	!	!	!	!LO:LB:g=original	!
=75	=75	=75	=75	=75	=75	=75	=75
8.B-\	de-	8.e-\	de-	8.g\	de-	8.dd-\	de-
16A-\	-di-	16e-\	-di-	16a-\	-di-	16cc\	-di-
4A-\	-mus	4e-\	-mus	4a-\	-mus	4cc\	-mus
!LO:LB:g=original	!	!	!	!LO:LB:g=original	!	!	!
=76	=76	=76	=76	=76	=76	=76	=76
4E-\	ma-	4e-\	ma-	4g\	ma-	4b-\	ma-
(4E-\	-num	[4e-\	-num	(4g\	-num	(4b-\	-num,
=77	=77	=77	=77	=77	=77	=77	=77
4A-\)	,	4e-\]	,	4a-\)	,	4cc\)	.
!	!	!	!	!	!	!LO:TX:b:t=Volti Subitto&colon;	!
4r	.	4r	.	4r	.	4r	.
!	!	!LO:LB:g=original	!	!	!	!LO:PB:g=original	!
=78	=78	=78	=78	=78	=78	=78	=78
4r	.	4r	.	4r	.	4r	.
8A-\	et	8e-\	et	8a-\	et	8cc\	et
8A-\	As-	8e-\	as-	8a-\	As-	8cc\	As-
=79	=79	=79	=79	=79	=79	=79	=79
8.A-\	-sy-	8.e-\	-sy-	8.a-\	-sy-	8.cc\	-si-
16A-\	-ri-	16e-\	-ri-	16a-\	-ri-	16cc\	-ri-
4A-\	-is,	4e-\	-is	4a-\	-is,	4cc\	-is,
=80	=80	=80	=80	=80	=80	=80	=80
8A-\	ut	8e-\	ut	8a-\	ut	8cc\	ut
8A-\	sa-	8e-\	sa-	8a-\	sa-	8cc\	sa-
8A-\	-tu-	8e-\	-tu-	8a-\	-tu-	8cc\	-tu-
8A-\	-ra-	8e-\	-ra-	8a-\	-ra-	8cc\	-ra-
!LO:LB:g=original	!	!	!	!LO:LB:g=original	!	!	!
=81	=81	=81	=81	=81	=81	=81	=81
4E-\	-re-	4e-\	-re-	4g\	-re-	4dd-\	-re-
4E-\	-mur	4d-\	-mur	4g\	-mur	4b-\	-mur
!	!	!LO:LB:g=original	!	!	!	!LO:LB:g=original	!
=82	=82	=82	=82	=82	=82	=82	=82
4A-\	pa-	4c\	pa-	2e-\	pa-	4a-\	pa-
4E-\	.	4B-\	.	.	.	4g\	.
=83	=83	=83	=83	=83	=83	=83	=83
4AA-/	.	4c\	.	2e-\	.	4a-\	.
4E-\	.	4d-\	.	.	.	4b-\	.
=84	=84	=84	=84	=84	=84	=84	=84
2E-\	-ne	2d-\	-nem	2e-\	-ne	2b-\	-ne
=85	=85	=85	=85	=85	=85	=85	=85
2AA-;/	,	2c;\	,	2e-;\	,	2a-;\	,
=86||	=86||	=86||	=86||	=86||	=86||	=86||	=86||
4A-\	Pa-	4c\	Pa-	4a-\	Pa-	4a-\	Pa-
4E-\	-tres	4e-\	-tres	4g\	-tres	4b-\	-tres
!LO:PB:g=original	!	!	!	!	!	!	!
=87	=87	=87	=87	=87	=87	=87	=87
8AA-/	nos-	8e-\	nos-	8a-\	nos-	8cc\	nos-
8A-\	tri-	8e-\	-tri	8a-\	-tri	8cc\	-tri
!	!	!	!	!LO:LB:g=original	!	!	!
8A-\	pec-	8e-\	pec-	8a-\	pec-	8cc\	pec-
8A-\	-ca-	8e-\	-ca-	8a-\	-ca-	8cc\	-ca-
!	!	!LO:LB:g=original	!	!	!	!LO:LB:g=original	!
=88	=88	=88	=88	=88	=88	=88	=88
4B-\	-ve	4e-\	-ve-	4g\	-ve-	4dd-\	-ve-
4A-\	-runt	4e-\	-runt	4a-\	-runt,	4cc\	-runt
=89	=89	=89	=89	=89	=89	=89	=89
8A-\	et	8e-\	et	8a-\	et	8cc\	et
8E-\	non	8e-\	non	8g\	non	8b-\	non
(4E-\	sunt,	[4e-\	sunt	(4g\	sunt	(4b-\	sunt
=90	=90	=90	=90	=90	=90	=90	=90
4A-\)	.	4e-\]	,	4a-\)	,	4cc\)	,
8r	.	8r	.	8r	.	8r	.
8A-\	et	8e-\	et	8a-\	et	8cc\	et
!LO:LB:g=original	!	!	!	!	!	!	!
=91	=91	=91	=91	=91	=91	=91	=91
8A-\	nos	8e-\	nos	8a-\	nos	8cc\	nos,
8A-\	i-	8e-\	i-	8a-\	i-	8cc\	i-
8A-\	-ni-	8e-\	-ni-	8a-\	-ni-	8cc\	-ni-
8A-\	-qui-	8e-\	-qui-	8a-\	-qui-	8cc\	-qui-
!	!	!LO:LB:g=original	!	!LO:LB:g=original	!	!LO:LB:g=original	!
=92	=92	=92	=92	=92	=92	=92	=92
4A-\	-ta-	4e-\	-ta-	4a-\	-ta-	4cc\	-ta-
8A-\	-tes	8e-\	-tes,	8a-\	-tes	8cc\	-tes
8A-\	e-	8e-\	e-	8a-\	e-	8cc\	e-
=93	=93	=93	=93	=93	=93	=93	=93
4E-\	-o-	4e-\	-o-	4g\	-o-	4dd-\	-o-
8E-\	-rum	8d-\	-rum	8g\	-rum	8b-\	-rum
8E-\	por-	8d-\	por-	8g\	por-	8b-\	por-
=94	=94	=94	=94	=94	=94	=94	=94
4A-\	-ta-	4c\	-ta-	2e-\	-ta-	4a-\	-ta-
4E-\	.	4B-\	.	.	.	(4g\	.
!LO:LB:g=original	!	!	!	!	!	!	!
=95	=95	=95	=95	=95	=95	=95	=95
4AA-/	.	4c\	.	4.e-\	.	4a-\)	.
8E-\	.	8d-\	.	.	.	8b-\	.
8E-\	-vi-	8d-\	-vi-	8e-\	-vi-	8b-\	-vi-
!	!	!	!	!	!	!LO:LB:g=original	!
=96	=96	=96	=96	=96	=96	=96	=96
2E-\	-mus	2d-\	-mus	2e-\	-mus	2b-\	-mus
!	!	!LO:LB:g=original	!	!	!	!	!
=97	=97	=97	=97	=97	=97	=97	=97
2AA-;/	,	2c;\	,	2e-;\	,	2a-;\	,
!	!	!	!	!LO:LB:g=original	!	!	!
=98||	=98||	=98||	=98||	=98||	=98||	=98||	=98||
4A-\	ser-	4c\	ser-	4a-\	ser-	4a-\	ser-
(4E-\	.	[4e-\	.	(4g\	.	(4b-\	.
=99	=99	=99	=99	=99	=99	=99	=99
8AA-/)	.	8e-\]	.	8a-\)	.	8cc\)	.
8A-\	-vi	8e-\	-vi	8a-\	-vi	8cc\	-vi
8A-\	do-	8e-\	do-	8a-\	do-	8cc\	do-
8A-\	-mi-	8e-\	-mi-	8a-\	-mi-	8cc\	-mi-
!LO:LB:g=original	!	!	!	!	!	!	!
=100	=100	=100	=100	=100	=100	=100	=100
4B-\	-na-	4e-\	-na-	4g\	-na-	4dd-\	-na-
8A-\	-ti	8e-\	-ti	8a-\	-ti	8cc\	-ti
8A-\	sunt	8e-\	sunt	8a-\	sunt	8cc\	sunt
!	!	!	!	!	!	!LO:LB:g=original	!
=101	=101	=101	=101	=101	=101	=101	=101
4E-\	nos-	4e-\	nos-	4g\	no-	4b-\	nos-
(4E-\	-tri	[4e-\	-tri	(4g\	-bis	(4b-\	-tri
!	!	!LO:LB:g=original	!	!	!	!	!
=102	=102	=102	=102	=102	=102	=102	=102
4A-\)	,	4e-\]	,	4a-\)	,	4cc\)	,
8r	.	8r	.	8r	.	8r	.
8A-\	non	8e-\	non	8a-\	non	8cc\	non
!	!	!	!	!LO:PB:g=original	!	!	!
=103	=103	=103	=103	=103	=103	=103	=103
8A-\	fu-	8e-\	fu-	8a-\	fu-	8cc\	fu-
8A-\	-it	8e-\	-it	8a-\	-it	8cc\	-it
8A-\	qui	8e-\	qui	8a-\	qui	8cc\	qui
8A-\	re-	8e-\	re-	8a-\	re-	8cc\	re-
!LO:LB:g=original	!	!	!	!	!	!	!
=104	=104	=104	=104	=104	=104	=104	=104
8.A-\	-di-	8.e-\	-di-	8.a-\	-di-	8.cc\	-di-
16A-\	-me-	16e-\	-me-	16a-\	-me-	16cc\	-me-
8A-\	-ret	8e-\	-ret	8a-\	-ret	8cc\	-ret
8A-\	de	8e-\	de	8a-\	de	8cc\	de
!	!	!	!	!	!	!LO:LB:g=original	!
=105	=105	=105	=105	=105	=105	=105	=105
4E-\	ma-	4e-\	ma-	4g\	ma-	4dd-\	ma-
8E-\	-nu	8d-\	-nu	8g\	-nu	8b-\	-nu
8E-\	e-	8d-\	e-	8g\	e-	8b-\	e-
!	!	!LO:LB:g=original	!	!	!	!	!
=106	=106	=106	=106	=106	=106	=106	=106
4A-\	-o-	4c\	-o-	2e-\	-o-	4a-\	-o-
4E-\	.	4B-\	.	.	.	4g\	.
=107	=107	=107	=107	=107	=107	=107	=107
4AA-/	.	4c\	.	2e-\	.	4a-\	.
4E-\	.	4d-\	.	.	.	4b-\	.
!	!	!	!	!LO:LB:g=original	!	!	!
=108	=108	=108	=108	=108	=108	=108	=108
2E-\	-rum	2d-\	-rum	2e-\	-rum	2b-\	-rum
!LO:LB:g=original	!	!	!	!	!	!	!
=109	=109	=109	=109	=109	=109	=109	=109
2AA-;/	,	2c;\	,	2e-;\	,	2a-;\	,
=110||	=110||	=110||	=110||	=110||	=110||	=110||	=110||
4A-\	in	4c\	in	4a-\	in	4a-\	in
8.E-\	a-	8.e-\	a-	8.g\	a-	8.b-\	a-
16AA-/	-ni-	16e-\	-ni-	16a-\	-ni-	16cc\	-ni-
!	!	!	!	!	!	!LO:LB:g=original	!
=111	=111	=111	=111	=111	=111	=111	=111
8AA-/	-ma-	8e-\	-ma-	8a-\	-ma-	8cc\	-ma-
8A-\	-bus	8e-\	-bus	8a-\	-bus	8cc\	-bus
8A-\	nos-	8e-\	nos-	8a-\	nos-	8cc\	nos-
8A-\	-tris	8e-\	-tris	8a-\	-tris	8cc\	-tris
!	!	!LO:LB:g=original	!	!	!	!	!
=112	=112	=112	=112	=112	=112	=112	=112
8r	.	8r	.	8r	.	8r	.
8A-\	af-	8e-\	ef-	8a-\	of-	8cc\	af-
8A-\	-fe-	8e-\	-fe-	8a-\	-fe-	8cc\	-fe-
8A-\	-re-	8e-\	-re-	8a-\	-re-	8cc\	-re-
!LO:LB:g=original	!	!	!	!LO:LB:g=original	!	!	!
=113	=113	=113	=113	=113	=113	=113	=113
8A-\	-ba-	8e-\	-ba-	8a-\	-ba-	8cc\	-ba-
8A-\	-mus	8e-\	-mus	8a-\	-mus	8cc\	-mus
4r	.	4r	.	4r	.	4r	.
=114	=114	=114	=114	=114	=114	=114	=114
4B-\	pa-	4e-\	pa-	4g\	pa-	4dd-\	pa-
4A-\	-nem	4e-\	-nem	4a-\	-nem	4cc\	-nem
!	!	!	!	!	!	!LO:LB:g=original	!
=115	=115	=115	=115	=115	=115	=115	=115
4E-\	no-	4e-\	no-	4g\	no-	4b-\	no-
4E-\	-bis	[4e-\	-bis	4g\	-bis	4b-\	-bis
=116	=116	=116	=116	=116	=116	=116	=116
4A-\	,	4e-\]	.	4a-\	,	4cc\	,
8r	.	8r	.	8r	.	8r	.
8A-\	a	8e-\	a	8a-\	a	8cc\	a
!	!	!LO:PB:g=original	!	!	!	!	!
=117	=117	=117	=117	=117	=117	=117	=117
4A-\	fa-	4e-\	fa-	4a-\	fa-	4cc\	fa-
8A-\	-ci-	8e-\	-ci-	8a-\	-ci-	8cc\	-ci-
8A-\	-e	8e-\	-e	8a-\	-e	8cc\	-e
!	!	!	!	!LO:LB:g=original	!	!	!
=118	=118	=118	=118	=118	=118	=118	=118
8.A-\	gla-	8.e-\	gla-	8.a-\	gla-	8.cc\	gla-
16A-\	-di-	16e-\	-di-	16a-\	-di-	16cc\	-di-
4A-\	-i	4e-\	-i,	4a-\	-i	4cc\	-i
=119	=119	=119	=119	=119	=119	=119	=119
4E-\	in	4e-\	in	4g\	in	4dd-\	in
4E-\	de-	4d-\	de-	4g\	de-	4b-\	de-
!	!	!	!	!	!	!LO:LB:g=original	!
=120	=120	=120	=120	=120	=120	=120	=120
4A-\	-ser-	4c\	-ser-	2e-\	-ser-	4a-\	-ser-
4E-\	.	4B-\	.	.	.	4g\	.
=121	=121	=121	=121	=121	=121	=121	=121
4AA-/	.	4c\	.	2e-\	.	4a-\	.
4E-\	.	4d-\	.	.	.	4b-\	.
=122	=122	=122	=122	=122	=122	=122	=122
2E-\	-to	2d-\	-to	2e-\	-to	2b-\	-to
=123	=123	=123	=123	=123	=123	=123	=123
2AA-;/	,	2c;\	,	2e-;\	,	2a-;\	,
!LO:LB:g=original	!	!LO:LB:g=original	!	!	!	!	!
=124||	=124||	=124||	=124||	=124||	=124||	=124||	=124||
4A-\	pel-	4c\	pel-	4a-\	pel-	4a-\	pel-
(4E-\	.	[4e-\	.	(4g\	.	(4b-\	.
!	!	!	!	!LO:LB:g=original	!	!	!
=125	=125	=125	=125	=125	=125	=125	=125
8AA-/)	.	8e-\]	.	8a-\)	.	8cc\)	.
8A-\	-lis	8e-\	-lis	8a-\	-lis	8cc\	-lis
8A-\	nos-	8e-\	nos-	8a-\	nos-	8cc\	nos-
8A-\	-tra	8e-\	-tra	8a-\	-tra	8cc\	-tra
!	!	!	!	!	!	!LO:LB:g=original	!
=126	=126	=126	=126	=126	=126	=126	=126
4B-\	qua-	4e-\	qua-	4g\	qua-	4dd-\	qua-
4A-\	-si	4e-\	-si	4a-\	-si	4cc\	-si
=127	=127	=127	=127	=127	=127	=127	=127
8E-\	cli-	8e-\	cli-	8g\	cli-	8b-\	cli-
8E-\	-ba-	8e-\	-ba-	8g\	-ba-	8b-\	-ba-
(4E-\	-nus	[4e-\	-nus	(4g\	-nus	(4b-\	-nus
!LO:LB:g=original	!	!	!	!	!	!	!
=128	=128	=128	=128	=128	=128	=128	=128
4A-\)	,	4e-\]	,	4a-\)	,	4cc\)	,
8r	.	8r	.	8r	.	8r	.
8A-\	ex-	8e-\	ex-	8a-\	e-	8cc\	e-
=129	=129	=129	=129	=129	=129	=129	=129
8A-\	-u-	8e-\	-u-	8a-\	-xu-	8cc\	-xu-
8A-\	-sta	8e-\	-sta	8a-\	-sta	8cc\	-sta
!	!	!	!	!LO:LB:g=original	!	!	!
8A-\	est	8e-\	est	8a-\	est	8cc\	est
8A-\	a	8e-\	a	8a-\	a	8cc\	a
!	!	!LO:LB:g=original	!	!	!	!LO:LB:g=original	!
=130	=130	=130	=130	=130	=130	=130	=130
8.A-\	fa-	8.e-\	fa-	8.a-\	fa-	8.cc\	fa-
16A-\	-ci-	16e-\	-ci-	16a-\	-ci-	16cc\	-ci-
4A-\	-e	4e-\	-e,	4a-\	-e,	4cc\	-e
=131	=131	=131	=131	=131	=131	=131	=131
4r	.	4r	.	4r	.	4r	.
8A-\	tem-	8e-\	tem-	8a-\	tem-	8cc\	tem-
8A-\	-pe-	8e-\	-pes-	8a-\	-pe-	8cc\	-pe-
!LO:LB:g=original	!	!	!	!	!	!	!
=132	=132	=132	=132	=132	=132	=132	=132
4E-\	-sta-	4e-\	-ta-	4g\	-sta-	4dd-\	-sta-
4E-\	-tum	4d-\	-tum	4g\	-tum	4b-\	-tum
=133	=133	=133	=133	=133	=133	=133	=133
4A-\	fa-	4c\	fa-	2e-\	fa-	4a-\	fa-
4E-\	.	4B-\	.	.	.	4g\	.
=134	=134	=134	=134	=134	=134	=134	=134
4AA-/	.	4c\	.	2e-\	.	4a-\	.
4E-\	.	4d-\	.	.	.	4b-\	.
!	!	!	!	!LO:LB:g=original	!	!LO:PB:g=original	!
=135	=135	=135	=135	=135	=135	=135	=135
2E-\	-mis	2d-\	-mis	2e-\	-mis	2b-\	-mis
=136	=136	=136	=136	=136	=136	=136	=136
!LO:TX:b:t=Volti Subitto&colon;	!	!	!	!	!	!	!
2AA-;/	.	2c;\	,	2e-;\	,	2a-;\	,
!LO:PB:g=original	!	!	!	!	!	!	!
=137||	=137||	=137||	=137||	=137||	=137||	=137||	=137||
4A-\	mu-	4c\	mu-	4a-\	mu-	4a-\	mu-
(4E-\	-li-	[4e-\	-li-	(4g\	-li-	(4b-\	-li-
!	!	!LO:LB:g=original	!	!	!	!	!
=138	=138	=138	=138	=138	=138	=138	=138
8AA-/)	.	8e-\]	.	8a-\)	.	8cc\)	.
8A-\	-e-	8e-\	-e-	8a-\	-e-	8cc\	-e-
8A-\	-res	8e-\	-res	8a-\	-res	8cc\	-res
8A-\	in	8e-\	in	8a-\	in	8cc\	in
=139	=139	=139	=139	=139	=139	=139	=139
8A-\	Si-	8e-\	Si-	8a-\	Si-	8cc\	Si-
8A-\	-on,	8e-\	-on,	8a-\	-on,	8cc\	-on,
8r	.	8r	.	8r	.	8r	.
8A-\	hu-	8e-\	hu-	8a-\	hu-	8cc\	hu-
!	!	!	!	!LO:LB:g=original	!	!LO:LB:g=original	!
=140	=140	=140	=140	=140	=140	=140	=140
4B-\	-mi-	4e-\	-mi-	4g\	-mi-	4dd-\	-mi-
8A-\	-li-	8e-\	-li-	8a-\	-li-	8cc\	-li-
8A-\	-a-	8e-\	-a-	8a-\	-a-	8cc\	-a-
!LO:LB:g=original	!	!	!	!	!	!	!
=141	=141	=141	=141	=141	=141	=141	=141
4E-\	-ve-	4e-\	-ve-	4g\	-ve-	4b-\	-ve-
4E-\	-runt	[4e-\	-runt	(4g\	-runt	(4b-\	-runt
=142	=142	=142	=142	=142	=142	=142	=142
4A-\	,	4e-\]	.	4a-\)	,	4cc\)	,
8r	.	8r	.	8r	.	8r	.
8A-\	et	8e-\	et	8a-\	et	8cc\	et
!	!	!LO:LB:g=original	!	!	!	!	!
=143	=143	=143	=143	=143	=143	=143	=143
8.A-\	vir-	8.e-\	vir-	8.a-\	vir-	8.cc\	vir-
16A-\	-gi-	16e-\	-gi-	16a-\	-gi-	16cc\	-gi-
4A-\	-nes	4e-\	-nes	4a-\	-nes	4cc\	-nes
!	!	!	!	!	!	!LO:LB:g=original	!
=144	=144	=144	=144	=144	=144	=144	=144
8r	.	8r	.	8r	.	8r	.
8A-\	in	8e-\	in	8a-\	in	8cc\	in
8A-\	ci-	8e-\	ci-	8a-\	ci-	8cc\	ci-
8A-\	-vi-	8e-\	-vi-	8a-\	-vi-	8cc\	-vi-
!	!	!	!	!LO:LB:g=original	!	!	!
=145	=145	=145	=145	=145	=145	=145	=145
8.E-\	-ta-	8.e-\	-ta-	8.g\	-ta-	8.dd-\	-ta-
16E-\	-ti-	16d-\	-ti-	16g\	-ti-	16b-\	-ti-
4E-\	-bus	4d-\	-bus	4g\	-bus	4b-\	-bus
!LO:LB:g=original	!	!	!	!	!	!	!
=146	=146	=146	=146	=146	=146	=146	=146
4A-\	Ju-	4c\	Ju-	2e-\	Ju-	4a-\	Ju-
4E-\	.	4B-\	.	.	.	4g\	.
=147	=147	=147	=147	=147	=147	=147	=147
4AA-/	.	4c\	.	2e-\	.	4a-\	.
4E-\	.	4d-\	.	.	.	4b-\	.
!	!	!LO:LB:g=original	!	!	!	!	!
=148	=148	=148	=148	=148	=148	=148	=148
2E-\	-da	2d-\	-da	2e-\	-da	2b-\	-da
=149	=149	=149	=149	=149	=149	=149	=149
2AA-;/	,	2c;\	,	2e-;\	,	2a-;\	,
!	!	!	!	!	!	!LO:LB:g=original	!
=150||	=150||	=150||	=150||	=150||	=150||	=150||	=150||
4A-\	Je-	4c\	Je-	4a-\	Je-	4a-\	Je-
(4E-\	-ru-	[4e-\	-ru-	(4g\	-ru-	(4b-\	-ru-
=151	=151	=151	=151	=151	=151	=151	=151
8AA-/)	.	8e-\]	.	8a-\)	.	8cc\)	.
8A-\	sa-	8e-\	-sa-	8a-\	-sa-	8cc\	-sa-
4A-\	-lem,	4e-\	-lem,	4a-\	-lem	4cc\	-lem
!LO:LB:g=original	!	!	!	!LO:LB:g=original	!	!	!
=152	=152	=152	=152	=152	=152	=152	=152
4r	.	4r	.	4r	.	4r	.
4A-\	Je-	4e-\	Je-	4a-\	Je-	4cc\	Je-
=153	=153	=153	=153	=153	=153	=153	=153
4B-\	-ru-	[2e-\	-ru-	4g\	-ru-	4dd-\	-ru-
(4A-\	.	.	.	(4a-\	.	(4cc\	.
=154	=154	=154	=154	=154	=154	=154	=154
8E-\)	.	8e-\]	.	8g\)	.	8b-\)	.
8E-\	-sa-	8e-\	-sa-	8g\	-sa-	8b-\	-sa-
(4E-\	-lem	[4e-\	-lem	4g\	-lem	4b-\	-lem
!	!	!LO:LB:g=original	!	!	!	!LO:LB:g=original	!
=155	=155	=155	=155	=155	=155	=155	=155
4A-\)	,	4e-\]	,	4a-\	,	4cc\	,
4r	.	4r	.	4r	.	4r	.
=156	=156	=156	=156	=156	=156	=156	=156
4A-\	con-	4c\	con-	4a-\	con-	4a-\	con-
(4E-\	-ver-	[4e-\	-ver-	(4g\	-ver-	(4b-\	-ver-
=157	=157	=157	=157	=157	=157	=157	=157
8AA-/)	.	8e-\]	.	8a-\)	.	8cc\)	.
8A-\	-te-	8e-\	-te-	8a-\	-te-	8cc\	-te-
4A-\	-re	4e-\	-re,	4a-\	-re	4cc\	-re
!LO:LB:g=original	!	!	!	!LO:LB:g=original	!	!	!
=158	=158	=158	=158	=158	=158	=158	=158
8r	.	8r	.	8r	.	8r	.
8A-\	ad	8e-\	ad	8a-\	ad	8cc\	ad
8A-\	Do-	8e-\	Do-	8a-\	Do-	8cc\	Do-
16A-\	-mi-	16e-\	-mi-	16a-\	-mi-	16cc\	-mi-
16A-\	-num	16e-\	-num	16a-\	-num	16cc\	-num
=159	=159	=159	=159	=159	=159	=159	=159
4E-\	De-	4e-\	De-	4g\	De-	4dd-\	De-
4E-\	-um	4d-\	-um	4g\	-um	4b-\	-um
!	!	!	!	!	!	!LO:LB:g=original	!
=160	=160	=160	=160	=160	=160	=160	=160
4A-\	tu-	4c\	tu-	2e-\	tu-	4a-\	tu-
4E-\	.	4B-\	.	.	.	4g\	.
!	!	!LO:LB:g=original	!	!	!	!	!
=161	=161	=161	=161	=161	=161	=161	=161
4AA-/	.	4c\	.	2e-\	.	4a-\	.
4E-\	.	4d-\	.	.	.	4b-\	.
=162	=162	=162	=162	=162	=162	=162	=162
2E-\	-um.	2d-\	-um.	2e-\	-um.	2b-\	-um
=163	=163	=163	=163	=163	=163	=163	=163
2AA-;/	.	2c;\	.	2e-;\	.	2a-;\	.
==	==	==	==	==	==	==	==
*-	*-	*-	*-	*-	*-	*-	*-
!!!system-decoration: [(s1,s2,s3,s4)]
!!!ENC: Berenika Jozajtis
!!!END: 2023-11-18
!!!EED: Leszek Kubiak
!!!EEV: 2024-06-12
